X:028 
T:Carmel Mahoney Mulhaire (reel)
C:Martin Mulhaire
F:file ID: cre.5/028carm_mm
B:CRE5.130 (Carmel NÃÂÃÂÃÂÃÂ­ MhathÃÂÃÂÃÂÃÂºna UÃÂÃÂÃÂÃÂ­ MaolchÃÂÃÂÃÂÃÂ©ire)
S:Martin's "authoritative version" provided to Breathnach
specifically for CRE5. 
L:1/8
Q:180
M:C
R:reel
K:C
B:CRE5.130 (Carmel NÃÂÃÂÃÂÃÂ­ MhathÃÂÃÂÃÂÃÂºna UÃÂÃÂÃÂÃÂ­ MaolchÃÂÃÂÃÂÃÂ©ire)
GE~E2 CEG,E|CE~E2 GAcd|ecgc acgc|(3d^cd fd BGAB|
"5"(3cBA (3BA^G A=GED|(3CB,C EC G,CEG|AF~F2 dGBd|1 egdB cBcA:|\
[2 egdB c2||
|:gf|"9"e2 e^d ege=d|ce~e2 ge~e2|cegc' e'c'ge|(3fed (3ed^c dGBd|
"13"e2 e^d ege=d|ce~e2 gceg|(3fgf eg fagf|1 efed c2:|2 efed c2||
|:ef|"17"gG~G2 EGcd|ec'bc' agfe|fdd^c d=cBA|(3GAG ^FA G2ef|
"21"gG~G2 EGcd|ec'bc' agfe|fdd^c d=cBA|GEFD C2:|
|GF|:"25"EG~G2 (3EFG CE|GCEG ageg|f2ef (3def cA|GdBG ^FG=FG|
"29"EG~G2 (3EFG CE|GCEG ageg|f2ef dfcd|1 G (3A^AB cBcG:|\
[2 G (3A^AB cBcA||"fine"GAB Hc4|]

%%%

